;FLAVOR:Marlin
;TIME:11502
;Filament used: 8.19216m
;Layer height: 0.2
;MINX:66.9
;MINY:57
;MINZ:0.2
;MAXX:153.1
;MAXY:163
;MAXZ:21.5
;Generated with Cura_SteamEngine 5.4.0
M140 S50
M105
M190 S50
M104 S200
M105
M109 S200
M82 ;absolute extrusion mode
; Ender 3 Custom Start G-code
G92 E0 ; Reset Extruder
G28 G29; Home all axes
G1 Z2.0 F3000 ; Move Z Axis up little to prevent scratching of Heat Bed
G1 X0.1 Y20 Z0.3 F5000.0 ; Move to start position
G1 X0.1 Y200.0 Z0.3 F1500.0 E15 ; Draw the first line
G1 X0.4 Y200.0 Z0.3 F5000.0 ; Move to side a little
G1 X0.4 Y20 Z0.3 F1500.0 E30 ; Draw the second line
G92 E0 ; Reset Extruder
G1 Z2.0 F3000 ; Move Z Axis up little to prevent scratching of Heat Bed
G1 X5 Y20 Z0.3 F5000.0 ; Move over to prevent blob squish
G92 E0
G92 E0
G1 F2700 E-5
;LAYER_COUNT:100
;LAYER:0
M107
G1 F300 Z1.7
G0 F6000 X69.631 Y60.765 Z1.7
;TYPE:SKIRT
G1 F300 Z0.2
G1 F2700 E0
G1 F1200 X70.356 Y60.013 E0.03474
G1 X71.092 Y59.376 E0.06712
G1 X71.824 Y58.846 E0.09718
G1 X72.721 Y58.311 E0.13191
G1 X73.599 Y57.89 E0.1643
G1 X74.512 Y57.548 E0.19673
G1 X75.449 Y57.289 E0.22906
G1 X76.416 Y57.111 E0.26176
G1 X77.555 Y57.015 E0.29978
G1 X78.212 Y57 E0.32164
G1 X141.404 Y57 E2.42341
G1 X142.284 Y57.013 E2.45268
G1 X143.256 Y57.072 E2.48507
G1 X144.219 Y57.218 E2.51747
G1 X145.166 Y57.449 E2.54989
G1 X146.054 Y57.749 E2.58106
G1 X146.946 Y58.139 E2.61344
G1 X147.829 Y58.626 E2.64698
G1 X148.58 Y59.128 E2.67703
G1 X149.395 Y59.786 E2.71187
G1 X150.093 Y60.464 E2.74423
G1 X150.729 Y61.201 E2.77661
G1 X151.299 Y61.991 E2.80901
G1 X151.761 Y62.767 E2.83905
G1 X152.215 Y63.709 E2.87383
G1 X152.544 Y64.587 E2.90501
G1 X152.813 Y65.559 E2.93856
G1 X152.99 Y66.525 E2.97122
G1 X153.085 Y67.655 E3.00894
G1 X153.1 Y68.33 E3.03139
G1 X153.099 Y151.4 E5.79431
G1 X153.088 Y152.163 E5.81969
G1 X153.031 Y153.136 E5.85211
G1 X152.886 Y154.099 E5.8845
G1 X152.657 Y155.045 E5.91688
G1 X152.346 Y155.969 E5.9493
G1 X151.954 Y156.86 E5.98168
G1 X151.486 Y157.712 E6.01401
G1 X150.964 Y158.493 E6.04525
G1 X150.331 Y159.278 E6.07879
G1 X149.706 Y159.929 E6.10881
G1 X148.917 Y160.617 E6.14363
G1 X148.157 Y161.167 E6.17483
G1 X147.29 Y161.684 E6.2084
G1 X146.412 Y162.106 E6.2408
G1 X145.501 Y162.448 E6.27317
G1 X144.562 Y162.709 E6.30558
G1 X143.596 Y162.887 E6.33825
G1 X142.445 Y162.985 E6.37668
G1 X141.77 Y163 E6.39913
G1 X78.464 Y162.999 E8.5047
G1 X77.731 Y162.988 E8.52908
G1 X76.759 Y162.931 E8.56146
G1 X75.796 Y162.785 E8.59386
G1 X74.85 Y162.556 E8.62623
G1 X73.926 Y162.244 E8.65867
G1 X73.036 Y161.852 E8.69102
G1 X72.213 Y161.401 E8.72223
G1 X71.374 Y160.84 E8.7558
G1 X70.67 Y160.274 E8.78584
G1 X69.917 Y159.549 E8.82061
G1 X69.28 Y158.813 E8.85298
G1 X68.75 Y158.082 E8.88301
G1 X68.214 Y157.185 E8.91777
G1 X67.792 Y156.307 E8.95017
G1 X67.45 Y155.395 E8.98257
G1 X67.19 Y154.457 E9.01494
G1 X67.012 Y153.488 E9.04771
G1 X66.914 Y152.309 E9.08706
G1 X66.9 Y151.658 E9.10871
G1 X66.901 Y68.525 E11.87373
G1 X66.912 Y67.825 E11.89701
G1 X66.97 Y66.852 E11.92943
G1 X67.116 Y65.889 E11.96183
G1 X67.346 Y64.943 E11.99421
G1 X67.659 Y64.02 E12.02663
G1 X68.051 Y63.13 E12.05897
G1 X68.521 Y62.277 E12.09136
G1 X69.064 Y61.469 E12.12374
G1 X69.631 Y60.765 E12.15381
G0 F6000 X69.943 Y61.016
G1 F1200 X70.618 Y60.315 E12.18618
G1 X71.327 Y59.7 E12.21739
G1 X72.059 Y59.17 E12.24745
G1 X72.895 Y58.671 E12.27983
G1 X73.74 Y58.264 E12.31103
G1 X74.619 Y57.933 E12.34227
G1 X75.522 Y57.682 E12.37344
G1 X76.45 Y57.51 E12.40483
G1 X77.589 Y57.414 E12.44285
G1 X78.221 Y57.4 E12.46387
G1 X141.398 Y57.4 E14.56515
G1 X142.26 Y57.412 E14.59382
G1 X143.197 Y57.468 E14.62504
G1 X144.125 Y57.607 E14.65625
G1 X145.038 Y57.828 E14.6875
G1 X145.894 Y58.116 E14.71754
G1 X146.786 Y58.506 E14.74992
G1 X147.607 Y58.959 E14.7811
G1 X148.358 Y59.461 E14.81115
G1 X149.117 Y60.073 E14.84358
G1 X149.791 Y60.726 E14.87479
G1 X150.405 Y61.435 E14.90598
G1 X150.955 Y62.196 E14.93721
G1 X151.417 Y62.972 E14.96725
G1 X151.84 Y63.849 E14.99964
G1 X152.169 Y64.727 E15.03082
G1 X152.42 Y65.632 E15.06206
G1 X152.591 Y66.559 E15.09341
G1 X152.686 Y67.689 E15.13113
G1 X152.7 Y68.33 E15.15245
G1 X152.699 Y151.395 E17.91521
G1 X152.689 Y152.14 E17.93999
G1 X152.635 Y153.077 E17.9712
G1 X152.497 Y154.006 E18.00244
G1 X152.278 Y154.918 E18.03364
G1 X151.98 Y155.808 E18.06485
G1 X151.603 Y156.668 E18.09608
G1 X151.153 Y157.49 E18.12725
G1 X150.631 Y158.271 E18.1585
G1 X150.042 Y159.001 E18.18969
G1 X149.417 Y159.652 E18.21971
G1 X148.682 Y160.293 E18.25215
G1 X147.922 Y160.843 E18.28335
G1 X147.116 Y161.324 E18.31457
G1 X146.271 Y161.732 E18.34578
G1 X145.393 Y162.063 E18.37699
G1 X144.489 Y162.316 E18.40821
G1 X143.562 Y162.488 E18.43957
G1 X142.411 Y162.586 E18.47799
G1 X141.77 Y162.6 E18.49931
G1 X78.47 Y162.599 E20.60468
G1 X77.754 Y162.589 E20.6285
G1 X76.818 Y162.535 E20.65968
G1 X75.889 Y162.396 E20.69092
G1 X74.977 Y162.177 E20.72212
G1 X74.087 Y161.878 E20.75334
G1 X73.228 Y161.501 E20.78455
G1 X72.405 Y161.05 E20.81576
G1 X71.625 Y160.528 E20.84698
G1 X70.921 Y159.962 E20.87702
G1 X70.219 Y159.287 E20.90941
G1 X69.604 Y158.578 E20.94063
G1 X69.074 Y157.847 E20.97066
G1 X68.574 Y157.011 E21.00306
G1 X68.166 Y156.166 E21.03427
G1 X67.835 Y155.288 E21.06548
G1 X67.583 Y154.384 E21.09669
G1 X67.411 Y153.455 E21.12811
G1 X67.313 Y152.276 E21.16746
G1 X67.3 Y151.658 E21.18802
G1 X67.301 Y68.531 E23.95284
G1 X67.311 Y67.848 E23.97556
G1 X67.366 Y66.911 E24.00677
G1 X67.505 Y65.983 E24.03798
G1 X67.725 Y65.071 E24.06919
G1 X68.025 Y64.181 E24.10043
G1 X68.402 Y63.322 E24.13163
G1 X68.853 Y62.5 E24.16281
G1 X69.376 Y61.72 E24.19405
G1 X69.943 Y61.016 E24.22411
G0 F6000 X70.255 Y61.267
G1 F1200 X70.881 Y60.617 E24.25413
G1 X71.562 Y60.024 E24.28416
G1 X72.294 Y59.494 E24.31422
G1 X73.069 Y59.031 E24.34424
G1 X73.882 Y58.638 E24.37428
G1 X74.727 Y58.318 E24.40433
G1 X75.596 Y58.075 E24.43434
G1 X76.484 Y57.909 E24.46439
G1 X77.623 Y57.813 E24.50241
G1 X78.23 Y57.8 E24.5226
G1 X141.393 Y57.8 E26.62341
G1 X142.237 Y57.811 E26.65148
G1 X143.139 Y57.864 E26.68154
G1 X144.032 Y57.996 E26.71156
G1 X144.91 Y58.207 E26.74159
G1 X145.766 Y58.495 E26.77163
G1 X146.593 Y58.857 E26.80166
G1 X147.385 Y59.292 E26.83171
G1 X148.136 Y59.794 E26.86176
G1 X148.839 Y60.361 E26.8918
G1 X149.489 Y60.988 E26.92184
G1 X150.081 Y61.67 E26.95187
G1 X150.611 Y62.401 E26.9819
G1 X151.073 Y63.177 E27.01194
G1 X151.466 Y63.99 E27.04198
G1 X151.784 Y64.835 E27.072
G1 X152.027 Y65.705 E27.10205
G1 X152.192 Y66.593 E27.13209
G1 X152.287 Y67.723 E27.16981
G1 X152.3 Y68.33 E27.19
G1 X152.299 Y151.39 E29.95259
G1 X152.29 Y152.117 E29.97677
G1 X152.239 Y153.019 E30.00682
G1 X152.108 Y153.913 E30.03687
G1 X151.899 Y154.791 E30.06689
G1 X151.613 Y155.648 E30.09694
G1 X151.252 Y156.476 E30.12698
G1 X150.82 Y157.268 E30.15699
G1 X150.319 Y158.02 E30.18704
G1 X149.753 Y158.724 E30.21708
G1 X149.128 Y159.375 E30.2471
G1 X148.447 Y159.969 E30.27716
G1 X147.716 Y160.5 E30.30721
G1 X146.942 Y160.964 E30.33722
G1 X146.129 Y161.358 E30.36727
G1 X145.285 Y161.678 E30.39729
G1 X144.415 Y161.923 E30.42735
G1 X143.528 Y162.089 E30.45737
G1 X142.377 Y162.187 E30.49579
G1 X141.77 Y162.2 E30.51598
G1 X78.475 Y162.199 E32.62118
G1 X77.777 Y162.19 E32.6444
G1 X76.876 Y162.139 E32.67441
G1 X75.982 Y162.007 E32.70447
G1 X75.104 Y161.798 E32.73449
G1 X74.247 Y161.511 E32.76455
G1 X73.42 Y161.15 E32.79456
G1 X72.627 Y160.717 E32.82461
G1 X71.876 Y160.216 E32.85464
G1 X71.172 Y159.65 E32.88468
G1 X70.521 Y159.024 E32.91472
G1 X69.928 Y158.343 E32.94476
G1 X69.398 Y157.612 E32.97479
G1 X68.934 Y156.837 E33.00483
G1 X68.54 Y156.024 E33.03488
G1 X68.22 Y155.18 E33.0649
G1 X67.976 Y154.31 E33.09495
G1 X67.81 Y153.422 E33.125
G1 X67.713 Y152.267 E33.16355
G1 X67.7 Y151.658 E33.18381
G1 X67.701 Y68.536 E35.94846
G1 X67.71 Y67.871 E35.97058
G1 X67.762 Y66.969 E36.00063
G1 X67.894 Y66.076 E36.03065
G1 X68.104 Y65.198 E36.06068
G1 X68.391 Y64.341 E36.09074
G1 X68.753 Y63.514 E36.12077
G1 X69.186 Y62.722 E36.15079
G1 X69.688 Y61.971 E36.18083
G1 X70.255 Y61.267 E36.2109
G1 F2700 E31.2109
G1 F300 Z1.7
;MESH:NEWsep23_maquina v3.stl
G0 F6000 X81.846 Y69 Z1.7
;TYPE:WALL-INNER
G1 F300 Z0.2
G1 F2700 E36.2109
G1 F1273.2 X82.528 Y68.977 E36.23229
G1 F1326 X82.714 Y68.986 E36.23789
G1 F2700 E31.23789
G0 F6000 X83.951 Y69.555
G0 X84.511 Y70.018
G0 X84.937 Y70.604
G0 X85.205 Y71.28
G0 X85.296 Y72
G0 X85.205 Y72.72
G0 X84.937 Y73.396
G0 X84.511 Y73.982
G0 X83.951 Y74.445
G0 X82.415 Y75.201
G0 X79.895 Y74.002
G0 X79.133 Y72.216
G0 X79.094 Y72.706
G0 X78.77 Y151.13
G0 X78.5 Y151.4
G1 F2700 E36.23789
G1 F1200 X141.5 Y151.4 E38.33328
G1 X141.5 Y68.6 E41.08722
G1 X78.501 Y68.601 E43.18258
G1 X78.5 Y151.4 E45.93648
G0 F6000 X78.9 Y151
G1 F1200 X141.1 Y151 E48.00526
G1 X141.1 Y73.504 E50.58279
G1 F1167.9 X141.09 Y72.985 E50.60053
G1 F1083.5 X141.068 Y72.724 E50.61018
G1 F1078.7 X141.088 Y72 E50.63698
G1 F1083.5 X141.07 Y71.338 E50.66137
G1 F1100.9 X141.095 Y71.015 E50.67312
G1 F1185.2 X141.1 Y69 E50.74097
G1 F1200 X138.424 Y69 E50.82998
G1 F1246.8 X137.914 Y68.986 E50.84631
G1 X138.529 Y69.085 E50.86625
G1 F1200 X139.239 Y69.418 E50.89234
G1 X139.729 Y69.823 E50.91348
G1 X139.902 Y70.005 E50.92183
G1 X140.205 Y70.422 E50.93898
G1 X140.327 Y70.643 E50.94737
G1 F1185.2 X140.522 Y71.124 E50.96485
G1 F1100.9 X140.61 Y71.366 E50.97419
G1 F1083.5 X140.662 Y72 E50.99762
G1 F1078.7 X140.606 Y72.684 E51.02301
G1 F1111.1 X140.327 Y73.357 E51.04918
G1 F1200 X140.205 Y73.578 E51.05758
G1 X139.902 Y73.994 E51.0747
G1 X139.73 Y74.178 E51.08307
G1 X139.236 Y74.583 E51.10432
G1 X138.562 Y74.899 E51.12908
G1 X137.796 Y75.053 E51.15507
G1 X137.155 Y75.014 E51.17642
G1 F917.8 X136.629 Y75.004 E51.1993
G1 F846.6 X136.781 Y75.208 E51.2113
G1 F1081.1 X136.922 Y75.428 E51.22094
G1 F1200 X137.095 Y75.811 E51.23492
G1 X137.1 Y112.23 E52.44622
G1 X137.07 Y112.477 E52.4545
G1 X136.983 Y112.701 E52.46249
G1 X136.854 Y112.888 E52.47005
G1 X136.539 Y113.13 E52.48326
G1 X136.195 Y113.23 E52.49517
G1 X83.805 Y113.23 E54.23767
G1 X83.461 Y113.129 E54.2496
G1 X83.146 Y112.888 E54.26279
G1 X83.017 Y112.701 E54.27034
G1 X82.93 Y112.477 E54.27834
G1 X82.9 Y112.23 E54.28661
G1 X82.9 Y76 E55.49163
G1 X82.939 Y75.72 E55.50103
G1 X83.039 Y75.489 E55.5094
G1 F1118.9 X83.357 Y75.001 E55.53018
G1 X82.716 Y75.029 E55.55307
G1 F1200 X82.582 Y75.045 E55.55756
G1 X81.955 Y75.013 E55.57844
G1 X81.707 Y74.965 E55.58684
G1 X81.097 Y74.766 E55.60818
G1 X80.558 Y74.425 E55.62939
G1 X80.364 Y74.265 E55.63776
G1 X80.011 Y73.89 E55.65489
G1 X79.862 Y73.686 E55.66329
G1 X79.617 Y73.238 E55.68027
G1 X79.525 Y73.005 E55.6886
G1 F1148.3 X79.35 Y72.401 E55.71046
G1 F1103.4 X79.35 Y71.744 E55.73422
G1 F1086 X79.371 Y71.489 E55.74363
G1 F1126.8 X79.525 Y70.995 E55.76196
G1 F1200 X79.617 Y70.762 E55.77029
G1 X79.862 Y70.314 E55.78727
G1 X80.011 Y70.11 E55.79567
G1 X80.364 Y69.735 E55.8128
G1 X80.558 Y69.575 E55.82117
G1 X81.096 Y69.235 E55.84233
G1 X81.814 Y69 E55.86746
G1 X78.901 Y69.001 E55.96435
G1 X78.901 Y70.917 E56.02807
G1 F1126.8 X78.927 Y71.433 E56.04638
G1 F1086 X78.916 Y71.744 E56.05781
G1 F1098.4 X78.921 Y72.47 E56.08419
G1 F1140.1 X78.901 Y73.083 E56.10566
G1 F1200 X78.9 Y151 E58.69719
G1 F2700 E53.69719
G1 F300 Z1.7
G0 F6000 X90.843 Y145.909 Z1.7
G1 F300 Z0.2
G1 F2700 E58.69719
G1 F1200 X90.105 Y146.05 E58.72218
G1 X89.332 Y146.006 E58.74794
G1 X88.72 Y145.809 E58.76932
G1 X88.489 Y145.7 E58.77782
G1 X87.952 Y145.358 E58.79899
G1 X87.429 Y144.804 E58.82433
G1 X87.051 Y144.101 E58.85088
G1 X86.867 Y143.382 E58.87556
G1 X86.866 Y142.627 E58.90067
G1 X87.056 Y141.873 E58.92654
G1 X87.424 Y141.203 E58.95196
G1 X87.951 Y140.642 E58.97756
G1 X88.6 Y140.232 E59.00309
G1 X89.328 Y140 E59.02851
G1 X90.114 Y139.953 E59.0547
G1 X90.843 Y140.092 E59.07938
G1 X91.542 Y140.422 E59.10509
G1 X92.12 Y140.899 E59.13001
G1 X92.582 Y141.534 E59.15613
G1 X92.868 Y142.269 E59.18236
G1 X92.956 Y142.976 E59.20606
G1 X92.866 Y143.757 E59.23221
G1 X92.562 Y144.5 E59.25891
G1 X92.202 Y144.994 E59.27924
G1 X92.03 Y145.177 E59.28759
G1 X91.54 Y145.579 E59.30867
G1 X90.843 Y145.909 E59.33432
G0 F6000 X90.719 Y145.525
G1 F1200 X90.075 Y145.649 E59.35614
G1 X89.404 Y145.608 E59.3785
G1 X88.769 Y145.404 E59.40068
G1 X88.206 Y145.046 E59.42287
G1 X87.76 Y144.563 E59.44474
G1 X87.435 Y143.985 E59.46679
G1 X87.267 Y143.337 E59.48906
G1 X87.266 Y142.671 E59.51121
G1 X87.436 Y142.022 E59.53352
G1 X87.755 Y141.441 E59.55557
G1 X88.212 Y140.956 E59.57773
G1 X88.775 Y140.601 E59.59987
G1 X89.41 Y140.392 E59.6221
G1 X90.058 Y140.354 E59.64369
G1 X90.719 Y140.474 E59.66604
G1 X91.34 Y140.772 E59.68895
G1 X91.832 Y141.185 E59.71031
G1 X92.229 Y141.726 E59.73263
G1 X92.471 Y142.339 E59.75455
G1 X92.555 Y143.002 E59.77678
G1 X92.47 Y143.652 E59.79858
G1 X92.223 Y144.277 E59.82093
G1 X91.837 Y144.818 E59.84304
G1 X91.328 Y145.238 E59.86499
G1 X90.719 Y145.525 E59.88738
G1 F2700 E54.88738
G1 F300 Z1.7
G0 F6000 X83.447 Y112.625 Z1.7
G1 F300 Z0.2
G1 F2700 E59.88738
G1 F1200 X83.3 Y112.311 E59.89891
G1 X83.3 Y76 E61.10662
G1 X83.383 Y75.693 E61.11719
G1 X83.553 Y75.509 E61.12553
G1 X83.686 Y75.439 E61.13053
G1 X83.9 Y75.4 E61.13776
G1 X136.104 Y75.4 E62.87407
G1 X136.287 Y75.427 E62.88023
G1 F1203 X136.491 Y75.545 E62.88804
G1 X136.594 Y75.656 E62.89307
G1 F1200 X136.697 Y75.885 E62.90142
G1 X136.7 Y112.344 E64.11405
G1 X136.553 Y112.625 E64.1246
G1 X136.364 Y112.77 E64.13252
G1 X136.18 Y112.825 E64.13891
G1 X83.82 Y112.825 E65.88041
G1 X83.636 Y112.77 E65.8868
G1 X83.447 Y112.625 E65.89472
G1 F2700 E60.89472
G0 F6000 X83 Y112.625
G0 X83.072 Y75.172
G0 X83.503 Y74.958
G1 F2700 E65.89472
G1 F932 X83.9 Y75 E65.91182
G1 F1200 X135.592 Y74.999 E67.6311
G1 F1113.7 X136.1 Y74.968 E67.64934
G1 F874.3 X136.381 Y74.917 E67.66237
G1 X136.171 Y74.723 E67.67543
G1 F1113.7 X135.758 Y74.425 E67.69368
G1 F1200 X135.564 Y74.265 E67.70204
G1 X135.211 Y73.89 E67.71917
G1 X135.063 Y73.686 E67.72755
G1 X134.817 Y73.238 E67.74455
G1 X134.725 Y73.005 E67.75288
G1 X134.597 Y72.505 E67.77005
G1 X134.566 Y72.256 E67.7784
G1 X134.566 Y71.744 E67.79543
G1 X134.597 Y71.495 E67.80377
G1 X134.725 Y70.995 E67.82094
G1 X134.817 Y70.762 E67.82927
G1 X135.063 Y70.314 E67.84627
G1 X135.211 Y70.11 E67.85465
G1 X135.564 Y69.735 E67.87178
G1 X135.758 Y69.575 E67.88014
G1 X136.296 Y69.235 E67.90131
G1 X137.014 Y69 E67.92644
G1 X83.224 Y69 E69.7155
G1 F1246.8 X82.714 Y68.986 E69.73183
G1 X83.329 Y69.085 E69.75178
G1 F1200 X84.039 Y69.418 E69.77786
G1 X84.529 Y69.823 E69.799
G1 X84.702 Y70.005 E69.80735
G1 X85.005 Y70.422 E69.8245
G1 X85.127 Y70.642 E69.83287
G1 X85.318 Y71.126 E69.85017
G1 X85.38 Y71.37 E69.85855
G1 X85.459 Y71.998 E69.8796
G1 X85.38 Y72.63 E69.90078
G1 X85.318 Y72.874 E69.90915
G1 X85.127 Y73.358 E69.92646
G1 X85.005 Y73.578 E69.93483
G1 X84.702 Y73.995 E69.95197
G1 X84.529 Y74.177 E69.96032
G1 X84.137 Y74.501 E69.97724
G1 X83.829 Y74.68 E69.98909
G1 F932 X83.503 Y74.958 E70.00743
G0 F6000 X83.212 Y74.527
G1 F1200 X82.56 Y74.646 E70.02948
G1 X81.903 Y74.609 E70.05136
G1 X81.27 Y74.402 E70.07352
G1 X80.709 Y74.047 E70.0956
G1 X80.251 Y73.562 E70.11778
G1 X79.931 Y72.979 E70.1399
G1 X79.766 Y72.328 E70.16224
G1 X79.766 Y71.664 E70.18432
G1 X79.931 Y71.02 E70.20644
G1 X80.251 Y70.439 E70.2285
G1 X80.706 Y69.955 E70.25059
G1 X81.271 Y69.597 E70.27284
G1 X81.914 Y69.394 E70.29526
G1 X82.574 Y69.351 E70.31726
G1 X83.218 Y69.474 E70.33907
G1 X83.825 Y69.76 E70.36139
G1 X84.332 Y70.178 E70.38324
G1 X84.726 Y70.718 E70.40548
G1 X84.974 Y71.345 E70.4279
G1 X85.05 Y72 E70.44983
G1 X84.974 Y72.655 E70.47176
G1 X84.727 Y73.282 E70.49418
G1 X84.334 Y73.819 E70.51631
G1 X83.828 Y74.238 E70.53816
G1 X83.212 Y74.527 E70.56079
G1 F2700 E65.56079
G0 F6000 X83.267 Y74.822
G0 X136.381 Y74.917
G1 F2700 E70.56079
G1 F748.8 X136.629 Y75.004 E70.5748
G0 F6000 X137.113 Y74.61
G1 F1200 X136.474 Y74.403 E70.59714
G1 X135.907 Y74.046 E70.61943
G1 X135.45 Y73.561 E70.64159
G1 X135.131 Y72.98 E70.66364
G1 X134.966 Y72.335 E70.68578
G1 X134.966 Y71.665 E70.70806
G1 X135.131 Y71.02 E70.73021
G1 X135.451 Y70.439 E70.75227
G1 X135.906 Y69.955 E70.77436
G1 X136.471 Y69.597 E70.79661
G1 X137.114 Y69.394 E70.81904
