%
(Header)
(Generated by gcodetools from Inkscape.)
(Using default header. To add your own header create file "header" in the output dir.)
M3
(Header end.)
G21 (All units in mm)

(Start cutting path id: path75)
(Change tool to Default tool)

G00 Z5.000000
G00 X2.310547 Y15.412110

G01 Z-0.999800 F100.0(Penetrate)
G01 X2.240235 Y1.230470 Z-0.999800 F100.000000
G01 X2.310547 Y15.412110 Z-0.999800
G00 Z5.000000

(End cutting path id: path75)


(Start cutting path id: path75)
(Change tool to Default tool)

G00 Z5.000000
G00 X2.310547 Y15.412110

G01 Z-1.000000 F100.0(Penetrate)
G01 X2.240235 Y1.230470 Z-1.000000 F100.000000
G01 X2.310547 Y15.412110 Z-1.000000
G00 Z5.000000

(End cutting path id: path75)


(Footer)
M5
G00 X0.0000 Y0.0000
M2
(Using default footer. To add your own footer create file "footer" in the output dir.)
(end)
%