;FLAVOR:Marlin
;TIME:5872
;Filament used: 4.09938m
;Layer height: 0.2
;MINX:63.058
;MINY:82.502
;MINZ:0.2
;MAXX:153.998
;MAXY:137.498
;MAXZ:26
;Generated with Cura_SteamEngine 5.4.0
M140 S50
M105
M190 S50
M104 S200
M105
M109 S200
M82 ;absolute extrusion mode
; Ender 3 Custom Start G-code
G92 E0 ; Reset Extruder
G28 G29; Home all axes
G1 Z2.0 F3000 ; Move Z Axis up little to prevent scratching of Heat Bed
G1 X0.1 Y20 Z0.3 F5000.0 ; Move to start position
G1 X0.1 Y200.0 Z0.3 F1500.0 E15 ; Draw the first line
G1 X0.4 Y200.0 Z0.3 F5000.0 ; Move to side a little
G1 X0.4 Y20 Z0.3 F1500.0 E30 ; Draw the second line
G92 E0 ; Reset Extruder
G1 Z2.0 F3000 ; Move Z Axis up little to prevent scratching of Heat Bed
G1 X5 Y20 Z0.3 F5000.0 ; Move over to prevent blob squish
G92 E0
G92 E0
G1 F2700 E-5
;LAYER_COUNT:130
;LAYER:0
M107
G1 F300 Z2.2
G0 F6000 X70.591 Y85.611 Z2.2
;TYPE:SKIRT
G1 F300 Z0.2
G1 F2700 E0
G1 F1200 X70.927 Y85.335 E0.01446
G1 X71.681 Y84.77 E0.0458
G1 X72.726 Y84.135 E0.08647
G1 X73.111 Y83.931 E0.10096
G1 X73.962 Y83.527 E0.13229
G1 X75.084 Y83.122 E0.17197
G1 X75.464 Y83.008 E0.18516
G1 X76.408 Y82.772 E0.21753
G1 X77.388 Y82.616 E0.25053
G1 X78.615 Y82.523 E0.29146
G1 X79.806 Y82.502 E0.33108
G1 X140.404 Y82.502 E2.34658
G1 X141.206 Y82.514 E2.37325
G1 X142.145 Y82.569 E2.40454
G1 X142.558 Y82.612 E2.41835
G1 X143.523 Y82.759 E2.45082
G1 X144.487 Y82.995 E2.48383
G1 X144.974 Y83.14 E2.50073
G1 X145.891 Y83.461 E2.53304
G1 X146.786 Y83.863 E2.56567
G1 X147.729 Y84.4 E2.60177
G1 X148.217 Y84.713 E2.62105
G1 X149.024 Y85.286 E2.65397
G1 X150.021 Y86.165 E2.69818
G1 X150.339 Y86.484 E2.71316
G1 X150.999 Y87.21 E2.74579
G1 X151.686 Y88.129 E2.78395
G1 X151.928 Y88.493 E2.79849
G1 X152.415 Y89.301 E2.82987
G1 X152.928 Y90.372 E2.86937
G1 X153.099 Y90.79 E2.88439
G1 X153.428 Y91.707 E2.91679
G1 X153.673 Y92.642 E2.94894
G1 X153.805 Y93.374 E2.97368
G1 X153.871 Y93.836 E2.9892
G1 X153.975 Y95.101 E3.03142
G1 X153.998 Y96.331 E3.07233
G1 X153.997 Y124.046 E3.99414
G1 X153.986 Y124.747 E4.01746
G1 X153.893 Y125.989 E4.05888
G1 X153.81 Y126.599 E4.07936
G1 X153.632 Y127.557 E4.11177
G1 X153.369 Y128.5 E4.14433
G1 X152.979 Y129.517 E4.18055
G1 X152.808 Y129.902 E4.19457
G1 X152.366 Y130.789 E4.22753
G1 X151.889 Y131.569 E4.25794
G1 X151.653 Y131.92 E4.272
G1 X151.069 Y132.706 E4.30457
G1 X150.346 Y133.511 E4.34056
G1 X150.035 Y133.823 E4.35521
G1 X149.311 Y134.484 E4.38782
G1 X148.438 Y135.141 E4.42416
G1 X148.045 Y135.404 E4.43989
G1 X147.205 Y135.912 E4.47254
G1 X146.134 Y136.423 E4.51201
G1 X145.697 Y136.602 E4.52771
G1 X144.78 Y136.931 E4.56012
G1 X143.907 Y137.161 E4.59014
G1 X143.149 Y137.302 E4.61579
G1 X142.693 Y137.368 E4.63111
G1 X141.388 Y137.476 E4.67467
G1 X140.164 Y137.498 E4.71538
G1 X79.448 Y137.497 E6.7348
G1 X78.796 Y137.486 E6.75649
G1 X77.868 Y137.432 E6.78741
G1 X77.453 Y137.389 E6.80129
G1 X76.486 Y137.243 E6.83381
G1 X75.518 Y137.006 E6.86696
G1 X75.089 Y136.878 E6.88185
G1 X74.235 Y136.583 E6.9119
G1 X73.109 Y136.067 E6.9531
G1 X72.718 Y135.859 E6.96783
G1 X71.904 Y135.379 E6.99926
G1 X70.88 Y134.627 E7.04152
G1 X70.539 Y134.344 E7.05625
G1 X69.816 Y133.684 E7.08881
G1 X69.036 Y132.823 E7.12745
G1 X68.778 Y132.504 E7.1411
G1 X68.241 Y131.778 E7.17113
G1 X67.634 Y130.772 E7.21021
G1 X67.428 Y130.384 E7.22482
G1 X67.025 Y129.533 E7.25614
G1 X66.618 Y128.406 E7.296
G1 X66.504 Y128.024 E7.30925
G1 X66.272 Y127.095 E7.3411
G1 X66.179 Y126.568 E7.3589
G1 X65.771 Y123.915 E7.44818
G1 X65.32 Y121.432 E7.53211
G1 X64.8 Y118.984 E7.61535
G1 X64.192 Y116.474 E7.70125
G1 X63.558 Y114.118 E7.7824
G1 X63.389 Y113.407 E7.8067
G1 X63.282 Y112.856 E7.82537
G1 X63.212 Y112.424 E7.83993
G1 X63.098 Y111.465 E7.87205
G1 X63.068 Y110.737 E7.89628
G1 X63.058 Y109.358 E7.94215
G1 X63.1 Y108.371 E7.97501
G1 X63.288 Y107.08 E8.0184
G1 X63.407 Y106.514 E8.03764
G1 X63.541 Y105.96 E8.05659
G1 X63.901 Y104.622 E8.10268
G1 X64.476 Y102.395 E8.17918
G1 X65.037 Y99.935 E8.2631
G1 X65.527 Y97.471 E8.34666
G1 X65.942 Y95.019 E8.42937
G1 X66.163 Y93.511 E8.48006
G1 X66.341 Y92.591 E8.51123
G1 X66.616 Y91.609 E8.54515
G1 X66.924 Y90.718 E8.5765
G1 X67.431 Y89.613 E8.61694
G1 X67.652 Y89.197 E8.63261
G1 X68.111 Y88.419 E8.66265
G1 X68.851 Y87.405 E8.7044
G1 X69.115 Y87.085 E8.7182
G1 X69.773 Y86.36 E8.75076
G1 X70.591 Y85.611 E8.78765
G0 F6000 X70.845 Y85.92
G1 F1200 X71.167 Y85.655 E8.80152
G1 X71.921 Y85.09 E8.83286
G1 X72.914 Y84.488 E8.87148
G1 X73.283 Y84.292 E8.88538
G1 X74.134 Y83.888 E8.91671
G1 X75.199 Y83.505 E8.95436
G1 X75.562 Y83.396 E8.96696
G1 X76.471 Y83.167 E8.99814
G1 X77.419 Y83.015 E9.03007
G1 X78.622 Y82.923 E9.0702
G1 X79.813 Y82.902 E9.10982
G1 X140.398 Y82.902 E11.12489
G1 X141.183 Y82.913 E11.151
G1 X142.104 Y82.967 E11.18168
G1 X142.498 Y83.008 E11.19486
G1 X143.428 Y83.148 E11.22614
G1 X144.392 Y83.384 E11.25915
G1 X144.843 Y83.518 E11.2748
G1 X145.728 Y83.826 E11.30596
G1 X146.588 Y84.211 E11.3373
G1 X147.513 Y84.737 E11.37269
G1 X147.986 Y85.04 E11.39138
G1 X148.759 Y85.586 E11.42285
G1 X149.756 Y86.465 E11.46706
G1 X150.044 Y86.754 E11.48063
G1 X150.679 Y87.45 E11.51197
G1 X151.353 Y88.35 E11.54937
G1 X151.585 Y88.699 E11.56331
G1 X152.072 Y89.507 E11.59468
G1 X152.558 Y90.524 E11.63217
G1 X152.723 Y90.926 E11.64663
G1 X153.041 Y91.809 E11.67784
G1 X153.279 Y92.713 E11.70893
G1 X153.409 Y93.431 E11.7332
G1 X153.472 Y93.869 E11.74792
G1 X153.576 Y95.134 E11.79014
G1 X153.598 Y96.331 E11.82995
G1 X153.597 Y124.04 E12.75156
G1 X153.587 Y124.717 E12.77408
G1 X153.494 Y125.959 E12.8155
G1 X153.417 Y126.527 E12.83457
G1 X153.247 Y127.45 E12.86578
G1 X152.995 Y128.357 E12.89709
G1 X152.613 Y129.355 E12.93264
G1 X152.45 Y129.724 E12.94605
G1 X152.025 Y130.58 E12.97784
G1 X151.557 Y131.346 E13.0077
G1 X151.331 Y131.682 E13.02116
G1 X150.771 Y132.439 E13.05248
G1 X150.062 Y133.229 E13.08779
G1 X149.765 Y133.528 E13.1018
G1 X149.07 Y134.164 E13.13314
G1 X148.197 Y134.821 E13.16948
G1 X147.838 Y135.062 E13.18386
G1 X147.032 Y135.551 E13.21522
G1 X145.982 Y136.053 E13.25392
G1 X145.561 Y136.226 E13.26906
G1 X144.678 Y136.544 E13.30028
G1 X143.805 Y136.774 E13.33031
G1 X143.091 Y136.906 E13.35446
G1 X142.66 Y136.969 E13.36894
G1 X141.355 Y137.077 E13.4125
G1 X140.164 Y137.098 E13.45212
G1 X79.454 Y137.097 E15.47134
G1 X78.819 Y137.087 E15.49246
G1 X77.909 Y137.034 E15.52278
G1 X77.512 Y136.993 E15.53605
G1 X76.581 Y136.854 E15.56736
G1 X75.613 Y136.617 E15.60051
G1 X75.22 Y136.5 E15.61415
G1 X74.366 Y136.205 E15.6442
G1 X73.297 Y135.714 E15.68332
G1 X72.921 Y135.514 E15.69749
G1 X72.107 Y135.034 E15.72892
G1 X71.135 Y134.319 E15.76905
G1 X70.808 Y134.048 E15.78318
G1 X70.112 Y133.415 E15.81447
G1 X69.347 Y132.571 E15.85236
G1 X69.1 Y132.266 E15.86541
G1 X68.563 Y131.54 E15.89544
G1 X67.987 Y130.584 E15.93257
G1 X67.79 Y130.213 E15.94654
G1 X67.387 Y129.362 E15.97786
G1 X67.001 Y128.291 E16.01572
G1 X66.892 Y127.927 E16.02836
G1 X66.666 Y127.025 E16.05929
G1 X66.574 Y126.507 E16.07678
G1 X66.165 Y123.843 E16.16643
G1 X65.713 Y121.36 E16.25037
G1 X65.189 Y118.89 E16.33435
G1 X64.581 Y116.38 E16.42025
G1 X63.947 Y114.025 E16.50136
G1 X63.782 Y113.331 E16.52509
G1 X63.677 Y112.791 E16.54339
G1 X63.609 Y112.376 E16.55737
G1 X63.498 Y111.448 E16.58846
G1 X63.468 Y110.734 E16.61223
G1 X63.458 Y109.374 E16.65746
G1 X63.496 Y108.429 E16.68892
G1 X63.684 Y107.138 E16.73231
G1 X63.796 Y106.608 E16.75033
G1 X63.927 Y106.064 E16.76894
G1 X64.287 Y104.726 E16.81502
G1 X64.863 Y102.495 E16.89166
G1 X65.427 Y100.024 E16.97596
G1 X65.919 Y97.549 E17.05989
G1 X66.338 Y95.077 E17.14328
G1 X66.556 Y93.587 E17.19337
G1 X66.734 Y92.667 E17.22453
G1 X66.994 Y91.739 E17.25659
G1 X67.288 Y90.885 E17.28663
G1 X67.795 Y89.78 E17.32706
G1 X67.997 Y89.4 E17.34138
G1 X68.456 Y88.622 E17.37142
G1 X69.16 Y87.659 E17.4111
G1 X69.412 Y87.353 E17.42428
G1 X70.043 Y86.655 E17.45558
G1 X70.845 Y85.92 E17.49176
G0 F6000 X71.099 Y86.229
G1 F1200 X71.407 Y85.975 E17.50504
G1 X72.129 Y85.432 E17.53508
G1 X73.102 Y84.841 E17.57295
G1 X73.455 Y84.653 E17.58625
G1 X74.27 Y84.264 E17.61629
G1 X75.314 Y83.888 E17.65319
G1 X75.66 Y83.784 E17.66521
G1 X76.535 Y83.562 E17.69524
G1 X77.45 Y83.414 E17.72606
G1 X78.629 Y83.323 E17.76539
G1 X79.82 Y83.302 E17.80501
G1 X140.393 Y83.302 E19.81968
G1 X141.16 Y83.312 E19.84519
G1 X142.063 Y83.365 E19.87528
G1 X142.439 Y83.404 E19.88785
G1 X143.333 Y83.537 E19.91791
G1 X144.279 Y83.768 E19.9503
G1 X144.712 Y83.896 E19.96532
G1 X145.565 Y84.191 E19.99534
G1 X146.39 Y84.559 E20.02538
G1 X147.315 Y85.085 E20.06078
G1 X147.756 Y85.367 E20.07819
G1 X148.495 Y85.886 E20.10822
G1 X149.473 Y86.748 E20.15158
G1 X149.749 Y87.024 E20.16456
G1 X150.359 Y87.69 E20.1946
G1 X151.02 Y88.572 E20.23126
G1 X151.243 Y88.906 E20.24462
G1 X151.711 Y89.679 E20.27467
G1 X152.188 Y90.677 E20.31146
G1 X152.347 Y91.062 E20.32532
G1 X152.654 Y91.911 E20.35535
G1 X152.885 Y92.784 E20.38538
G1 X153.013 Y93.489 E20.40921
G1 X153.073 Y93.902 E20.42309
G1 X153.177 Y95.167 E20.46531
G1 X153.198 Y96.331 E20.50403
G1 X153.197 Y124.034 E21.42544
G1 X153.188 Y124.687 E21.44716
G1 X153.095 Y125.929 E21.48858
G1 X153.023 Y126.455 E21.50624
G1 X152.861 Y127.344 E21.53629
G1 X152.621 Y128.214 E21.56631
G1 X152.247 Y129.193 E21.60117
G1 X152.084 Y129.562 E21.61459
G1 X151.683 Y130.372 E21.64465
G1 X151.225 Y131.123 E21.6739
G1 X151.009 Y131.445 E21.6868
G1 X150.473 Y132.172 E21.71684
G1 X149.764 Y132.962 E21.75215
G1 X149.494 Y133.233 E21.76487
G1 X148.829 Y133.844 E21.79491
G1 X147.956 Y134.501 E21.83125
G1 X147.63 Y134.72 E21.84431
G1 X146.859 Y135.19 E21.87434
G1 X145.83 Y135.683 E21.91229
G1 X145.425 Y135.85 E21.92686
G1 X144.576 Y136.157 E21.95689
G1 X143.703 Y136.387 E21.98692
G1 X143.032 Y136.51 E22.00961
G1 X142.627 Y136.57 E22.02322
G1 X141.322 Y136.678 E22.06678
G1 X140.164 Y136.698 E22.1053
G1 X79.46 Y136.697 E24.12432
G1 X78.842 Y136.688 E24.14488
G1 X77.95 Y136.636 E24.1746
G1 X77.57 Y136.597 E24.1873
G1 X76.676 Y136.465 E24.21736
G1 X75.708 Y136.228 E24.25051
G1 X75.351 Y136.122 E24.26289
G1 X74.497 Y135.827 E24.29294
G1 X73.484 Y135.36 E24.33004
G1 X73.123 Y135.169 E24.34363
G1 X72.344 Y134.712 E24.37367
G1 X71.39 Y134.011 E24.41304
G1 X71.077 Y133.752 E24.42655
G1 X70.408 Y133.146 E24.45658
G1 X69.658 Y132.319 E24.49371
G1 X69.422 Y132.028 E24.50617
G1 X68.885 Y131.302 E24.53621
G1 X68.34 Y130.396 E24.57137
G1 X68.151 Y130.041 E24.58475
G1 X67.763 Y129.226 E24.61477
G1 X67.384 Y128.176 E24.6519
G1 X67.28 Y127.829 E24.66395
G1 X67.06 Y126.954 E24.69395
G1 X66.969 Y126.446 E24.71112
G1 X66.559 Y123.771 E24.80113
G1 X66.106 Y121.288 E24.88508
G1 X65.578 Y118.796 E24.9698
G1 X64.97 Y116.286 E25.0557
G1 X64.336 Y113.933 E25.13675
G1 X64.175 Y113.255 E25.15993
G1 X64.072 Y112.725 E25.17789
G1 X64.006 Y112.328 E25.19127
G1 X63.898 Y111.431 E25.22132
G1 X63.868 Y110.731 E25.24463
G1 X63.858 Y109.389 E25.28926
G1 X63.892 Y108.487 E25.31928
G1 X64.08 Y107.196 E25.36268
G1 X64.185 Y106.701 E25.37951
G1 X64.313 Y106.168 E25.39774
G1 X64.673 Y104.83 E25.44382
G1 X65.25 Y102.595 E25.5206
G1 X65.817 Y100.113 E25.60527
G1 X66.311 Y97.627 E25.68958
G1 X66.734 Y95.135 E25.77364
G1 X66.949 Y93.662 E25.82316
G1 X67.119 Y92.775 E25.85319
G1 X67.372 Y91.869 E25.88448
G1 X67.666 Y91.015 E25.91452
G1 X68.148 Y89.968 E25.95286
G1 X68.342 Y89.603 E25.96661
G1 X68.801 Y88.825 E25.99665
G1 X69.469 Y87.913 E26.03425
G1 X69.709 Y87.621 E26.04682
G1 X70.313 Y86.95 E26.07685
G1 X71.099 Y86.229 E26.11232
G1 F2700 E21.11232
G1 F300 Z2.2
G0 F6000 X75.687 Y107.521 Z2.2
G1 F300 Z0.2
G1 F2700 E26.11232
G1 F1200 X76.002 Y107.678 E26.12403
G1 X76.002 Y112.331 E26.27879
G1 X75.915 Y112.374 E26.28202
G1 X75.826 Y112.461 E26.28616
G1 X75.804 Y112.553 E26.2893
G1 X75.804 Y112.574 E26.29
G1 X75.44 Y112.444 E26.30286
G1 X75.092 Y112.123 E26.3186
G1 X75.087 Y112.118 E26.31884
G1 X74.688 Y111.776 E26.33632
G1 X74.358 Y111.187 E26.35877
G1 X74.258 Y110.644 E26.37714
G1 X74.265 Y110.112 E26.39483
G1 X74.265 Y110.104 E26.3951
G1 X74.248 Y109.37 E26.41952
G1 X74.343 Y108.885 E26.43596
G1 X74.572 Y108.418 E26.45326
G1 X74.871 Y108.092 E26.46797
G1 X75.503 Y107.58 E26.49502
G1 X75.687 Y107.521 E26.50145
G0 F6000 X75.602 Y108.014
G1 F1200 X75.602 Y112.049 E26.63565
G1 X75.363 Y111.829 E26.64646
G1 X75.348 Y111.815 E26.64714
G1 X75.002 Y111.518 E26.66231
G1 X74.739 Y111.049 E26.68019
G1 X74.659 Y110.611 E26.695
G1 X74.665 Y110.117 E26.71143
G1 X74.665 Y110.095 E26.71216
G1 X74.649 Y109.406 E26.73508
G1 X74.727 Y109.011 E26.74848
G1 X74.906 Y108.646 E26.762
G1 X75.147 Y108.383 E26.77386
G1 X75.602 Y108.014 E26.79335
G0 F6000 X75.202 Y108.95
G1 F1200 X75.202 Y111.056 E26.86339
G1 X75.12 Y110.909 E26.86899
G1 X75.059 Y110.58 E26.88012
G1 X75.065 Y110.122 E26.89535
G1 X75.065 Y110.086 E26.89655
G1 X75.05 Y109.438 E26.91811
G1 X75.109 Y109.14 E26.92821
G1 X75.202 Y108.95 E26.93525
G1 F2700 E21.93525
G1 F300 Z2.2
G0 F6000 X93 Y107.608 Z2.2
G1 F300 Z0.2
G1 F2700 E26.93525
G1 F1200 X93.099 Y107.552 E26.93903
G1 X93.183 Y107.459 E26.9432
G1 X93.2 Y107.378 E26.94595
G1 X93.2 Y107.34 E26.94722
G1 X93.51 Y107.416 E26.95783
G1 X93.695 Y107.51 E26.96474
G1 X94.323 Y108.072 E26.99277
G1 X94.684 Y108.531 E27.01219
G1 X94.897 Y109.094 E27.03221
G1 X94.937 Y109.532 E27.04684
G1 X94.929 Y110.17 E27.06806
G1 X94.929 Y110.175 E27.06823
G1 X94.937 Y110.716 E27.08622
G1 X94.698 Y111.439 E27.11155
G1 X94.359 Y111.924 E27.13123
G1 X93.623 Y112.512 E27.16256
G1 X93.2 Y112.654 E27.1774
G1 X93.2 Y112.624 E27.1784
G1 X93.161 Y112.505 E27.18256
G1 X93.104 Y112.453 E27.18513
G1 X93 Y112.39 E27.18918
G1 X93 Y107.608 E27.34822
G0 F6000 X93.4 Y107.813
G1 F1200 X93.467 Y107.843 E27.35067
G1 X94.03 Y108.346 E27.37578
G1 X94.332 Y108.731 E27.39205
G1 X94.504 Y109.185 E27.4082
G1 X94.537 Y109.545 E27.42022
G1 X94.529 Y110.165 E27.44085
G1 X94.529 Y110.181 E27.44138
G1 X94.536 Y110.654 E27.45711
G1 X94.336 Y111.26 E27.47834
G1 X94.067 Y111.644 E27.49393
G1 X93.426 Y112.156 E27.52122
G1 X93.4 Y112.165 E27.52213
G1 X93.4 Y107.813 E27.66688
G0 F6000 X93.8 Y108.7
G1 F1200 X93.978 Y108.927 E27.67647
G1 X94.109 Y109.275 E27.68884
G1 X94.136 Y109.567 E27.6986
G1 X94.129 Y110.16 E27.71832
G1 X94.129 Y110.188 E27.71925
G1 X94.135 Y110.595 E27.73279
G1 X93.977 Y111.075 E27.7496
G1 X93.8 Y111.327 E27.75984
G1 X93.8 Y108.7 E27.84721
G1 F2700 E22.84721
G1 F300 Z2.2
;MESH:Contrasoporte_X_Parte3.stl
G0 F6000 X122.769 Y123.055 Z2.2
;TYPE:WALL-INNER
G1 F300 Z0.2
G1 F2700 E27.84721
G1 F1200 X122.586 Y122.935 E27.85449
G1 X122.47 Y122.783 E27.86085
G1 X122.4 Y122.596 E27.86749
G1 X122.398 Y120.444 E27.93907
G1 X122.362 Y120.157 E27.94869
G1 X122.232 Y119.842 E27.96002
G1 X122.082 Y119.619 E27.96896
G1 X121.833 Y119.369 E27.9807
G1 X121.54 Y119.211 E27.99177
G1 X121.181 Y119.102 E28.00425
G1 X91.906 Y119.101 E28.97794
G1 X91.658 Y118.994 E28.98692
G1 X91.508 Y118.845 E28.99395
G1 X91.401 Y118.54 E29.0047
G1 X91.401 Y101.46 E29.57279
G1 X91.508 Y101.155 E29.58354
G1 X91.658 Y101.006 E29.59057
G1 X91.923 Y100.9 E29.60006
G1 X121.179 Y100.898 E30.57312
G1 X121.532 Y100.79 E30.5854
G1 X121.775 Y100.661 E30.59455
G1 X121.985 Y100.488 E30.6036
G1 X122.164 Y100.271 E30.61296
G1 X122.289 Y100.038 E30.62175
G1 X122.398 Y99.682 E30.63413
G1 X122.4 Y97.405 E30.70987
G1 X122.47 Y97.216 E30.71657
G1 X122.586 Y97.064 E30.72293
G1 X122.769 Y96.945 E30.73019
G1 X122.924 Y96.9 E30.73556
G1 X133.177 Y96.906 E31.07657
G1 X133.546 Y96.959 E31.08897
G1 X133.918 Y97.068 E31.10187
G1 X134.361 Y97.265 E31.11799
G1 X134.841 Y97.66 E31.13867
G1 X135.167 Y98.061 E31.15586
G1 X135.402 Y98.497 E31.17233
G1 X135.538 Y98.939 E31.18771
G1 X135.596 Y99.335 E31.20102
G1 X135.594 Y120.668 E31.91056
G1 X135.533 Y121.159 E31.92702
G1 F1203 X135.294 Y121.727 E31.94746
G1 X135.01 Y122.155 E31.9645
G1 X134.667 Y122.496 E31.98055
G1 F1200 X134.24 Y122.786 E31.99772
G1 X133.664 Y123.033 E32.01856
G1 X133.17 Y123.094 E32.03512
G1 X123 Y123.1 E32.37337
G1 X122.769 Y123.055 E32.3812
G0 F6000 X122.769 Y123.4
G0 X133.151 Y123.337
G0 X133.717 Y123.268
G0 X134.342 Y123.006
G0 X134.805 Y122.696
G0 X136.042 Y121.317
G1 F689.7 X136.094 Y121.139 E32.39193
G0 F6000 X136.121 Y122.779
