%
(Header)
(Generated by gcodetools from Inkscape.)
(Using default header. To add your own header create file "header" in the output dir.)
M3
(Header end.)
G21 (All units in mm)

(Start cutting path id: path77)
(Change tool to Default tool)

G00 Z5.000000
G00 X39.583505 Y143.794800

G01 Z-0.998000 F100.0(Penetrate)
G01 X39.505295 Y3.503060 Z-0.998000 F100.000000
G00 Z5.000000

(End cutting path id: path77)


(Start cutting path id: path77)
(Change tool to Default tool)

G00 Z5.000000
G00 X39.583505 Y143.794800

G01 Z-1.000000 F100.0(Penetrate)
G01 X39.505295 Y3.503060 Z-1.000000 F100.000000
G00 Z5.000000

(End cutting path id: path77)


(Start cutting path id: path75)
(Change tool to Default tool)

G00 Z5.000000
G00 X6.827199 Y3.095890

G01 Z-0.998000 F100.0(Penetrate)
G01 X6.989723 Y144.886320 Z-0.998000 F100.000000
G00 Z5.000000

(End cutting path id: path75)


(Start cutting path id: path75)
(Change tool to Default tool)

G00 Z5.000000
G00 X6.827199 Y3.095890

G01 Z-1.000000 F100.0(Penetrate)
G01 X6.989723 Y144.886320 Z-1.000000 F100.000000
G00 Z5.000000

(End cutting path id: path75)


(Footer)
M5
G00 X0.0000 Y0.0000
M2
(Using default footer. To add your own footer create file "footer" in the output dir.)
(end)
%